X:1
T:Super Mario World Ending Theme
T:Super Mario World Ending Theme
T:Koji Kondo Arranged by Ron O'Dell Performed by Tom Brier Transcribed to MIDI by Cezary Sławecki 
T:https://musescore.com/user/33663887/scores/5963930 Transcribed from: https://www.youtube.com/watch?v=b9IkpUYlOx8 https://www.youtube.com/watch?v=ysokP9cIlqc 
T:as improvised by Tom Brier from an arrangement by Ron O'Dell 
C:Tom Brier
%%score { ( 1 3 ) | ( 2 4 ) }
L:1/8
Q:1/2=124
M:2/2
K:C
V:1 treble nm="Piano" snm="Pno."
V:3 treble 
V:2 bass 
V:4 bass 
V:1
"^Swing 8ths."!f!"^Not fast (c. 62)" .[FAce] z z [FAce] .[FAce] z z [FB^dg] | %1
 .[FB^dg] z z [FBdg] .[FBdg] z z2 ||{cd^d} [ce][cg][ea][ceg]- [ceg]3 a | bc' (3b_ba- a3 ^d | %4
 ega[eg]- [Beg]3 ^g | [ga]_b (3a_a[eg]- [ceg]3 ^g | ac'd'[^d^fac']- [dfac']3 _a | %7
 g^ga[A^ce]- [Ace]4 | ecAe cA[ce][GBdg] | x4[I:staff +1] [A,C][A,C][B,D][I:staff -1]^D || %10
 EGA[CEG]- [CEG]3 A | [B,^DGB][CDGc] (3[B,DGB][_B,_B][A,DGA]- [A,DGA]3 D | %12
 E[_B,G][EA][B,DEG]- [B,DEG]3 ^G | [GA]_B (3A_A[^CEG]- [CEG] [CEG=A]3 | %14
{^FG^G} A[=Fc][Ad][^D^FAc]- [DFAc]3 _A | G^GA[E=G^ce]- [EGce]4 | [^FAe]_ed[=Fc]- [Fc][Fc]A[EGc] | %17
 z [G,E] z [G,E] [_G,_E][G,E][F,D]^C || E2 [G^ce] z [Gce][Gce][^F^d][Ge]- | %19
 [Ge][E^c][^CA][CGA]- [CGA]4 | [Ge][^F^d][Ge][Fd] [Ge][F=d][Ec][CFA]- | [CFA]8 | %22
 [DFGB]2 [DFBd]2 [Fd][Fd][E^c][Fd] | [Ge][Fd][DB][B,FG]- [B,FG]3 [Fd] | %24
 .[Ec]2 .[EGc]2 (3[EGc]2 [F^Gd]2 [^FA^d]2 | [G_Bce]2 z [B,^DG]- [B,DG] [B,DG]3 || %26
!mf!{^CD^D} [=CE][CG]A[CEG]- [CEG]3 A | [^DB][Dc] (3B_B{^G}[DA]- [DA]3 D | %28
 [_B,E][B,G][DA][B,DEG]- [B,DEG]3 ^G | [^CGA]!<(![C_B] (3A_A[CEG]- [CEG]3 ^G!<)! | %30
 [CFA][Fc][Ad][C^FAc]- [CFAc] [CFA]2 _A | [CEG]^GA[E=G^ce]- [EGce]4 | %32
!f! .[FAce] z z [FAce] .[FAce] z z [FB^dg] | .[FB^dg] z z [FBdg] .[FBdg] z z [^Dd] || %34
 (3[EGce]2 [Gceg]2 [Acea]2 (3[Gceg]2 [Acea]2 [^A^a]2 | %35
 [B^dgb][cdgc'] (3[Bdgb][_B_b][Adga]- [Adga]3 [^Dd] | [E_Bde][GBdg][Aa][GBdeg]- [GBdeg] [^G^g]2 E | %37
 [^ca]/A/c/e/ [cg]/G/c/e/ [cf]/F/c/e/[Ec][^G^g] | [Acfa][cc'][dd'][Ac^d^fa]- a3 [_A_a] | %39
 [Gceg][^G^g][Aa][e=ga^c'e']- [egac'e']4 | .[fac'e'] z z [fac'e'] .[fac'e'] z z [fb^d'g'] | %41
 .[fb^d'g'] z z [fbd'g'] .[fbd'g'] z z2 || %42
 (3!arpeggio![Acea]2 [Gceg]2 [Acea]2 (3[Gceg]2 [Acea]2 [^A^a]2 | %43
 (3[B^dgb]2 [Adga]2 [Bdgb]2 (3[Adga]2 [Bdgb]2 [Aa]2 | %44
 (3[A_Bdea]2 [GBdeg]2 [ABdea]2 (3[GBdeg]2 [ABdea]2 [^G^g]2 | %45
 (3[^ca]Ac (3[cg]Gc (3[cf]Fc [Ece][^G^g] | [Acfa][cc'][dd'][Ac^d^fa]- a3 [_A_a] | %47
 [Gceg][^G^g][Aa][e=g^c'e']- [egc'e']4 | .[fac'e'] z z [fac'e'] .[fac'e'] z z [fgb^d'g'] | %49
 .[fgb^d'g'] z z [fgbd'g'] .[fgbd'g'] z z2 |!mf! [cegc']8- | [cegc']8[Q:1/4=110] | %52
"_rit." (3G,2 B,2 ^D2 (3G2[Q:1/4=105] B2 ^d2 | %53
[M:6/4][Q:1/4=90]!>(! (3g2[Q:1/4=80] [cc']2[Q:1/4=70] [ee']2[Q:1/4=60] (3!arpeggio![_ac'_a']2[Q:1/4=50] !arpeggio![gbg']2!8va(! ^d''2- !fermata!d''2!>)!!8va)! x[Q:1/4=50] ^D || %54
[M:2/2][Q:1/4=90]"^Straight 8ths."!mp![Q:1/4=90]"^Slow ( ~ 45)" E[Q:1/4=82]G[Q:1/4=85]A[Q:1/4=90]G- G3[Q:1/4=60] A | %55
[Q:1/4=100] B2 B[Q:1/4=90]A- A3[Q:1/4=60][Q:1/4=80] ^D | %56
 E[Q:1/4=95]GAG-[Q:1/4=90]"^(l.h)" G3[Q:1/4=85] ^G | %57
[M:7/4] A2[Q:1/4=80] A[Q:1/4=75]G-[Q:1/4=200] (G/[Q:1/4=210]G/[Q:1/4=220]A/^c/[Q:1/4=230]g/[Q:1/4=240]a/^c'/!8va(!g'/[Q:1/4=250]a'/^c''/e''/a''/- !fermata!a''2)!8va)! (3:2:2z2!f! [^G^g][Q:1/4=110] || %58
[M:2/2]"^Swing 8ths."[Q:1/2=62]"^A tempo" [Acfa][Q:1/4=115][cfac'][Q:1/4=120][dad'][Ac^d^fa]-[Q:1/4=125] a3 [_A_a] | %59
 [Gceg][^G^g][Aa][e=g^c'e']- [egc'e']4 | .[FAce] z z [FAce] .[FAce] z z [FGB^dg] | %61
 .[FGB^dg] z z [FGB=dg] .[FGBdg] z z2 || %62
[M:2/4]"^Straight 8ths."[Q:1/4=135]"^Allegro"{c^cd^d} [=ce][Gceg] [Acea][Gceg]- | %63
 [Gceg][Gceg]/[Gceg]/- [Gceg]/[Acea]B/- | [B^dgb]>[Bdgb]- [Bdgb][Adga] | z (3A/^d/g/ a<[^GBd^g] | %66
 [G_Bd][GBdg] [ABda][GBdg]- | [GBdg][^F^f]/[G_Bdg]/- [GBdg]/[^G^g]A/- | %68
 [A^cea]/A/c/e/ [da]/A/d/e/ | [A^ca][_A_a]/[Gceg]/- [Gceg][Gc]/=A/- | [Acfa][Bfb] [cc'][Ac^fa]- | %71
 [Acfa][c^f]/[Acfa]/- [Acfa]/[_A_a]G/- | [Gceg][^G^g] [Aa][=G^ce]- | %73
 [Gce] z/[I:staff +1] A,/[I:staff -1] z/[I:staff +1] _A,/[I:staff -1] z/[I:staff +1] G,/ | %74
[I:staff -1] z [FAe] [A^d]/[FAe]F/- | [FAce][A_e]/[FAd]/- [FAd]/[FA=e]G/- | %76
 [GBdg]/G/B/d/ [Acg]/G/B/d/ | [GBdg]2!8va(! z/ (G/!8va)!{^f}g) | [Gce]>[Gceg]- [Gceg][Acea]- | %79
 [Acea]<[Gceg] [Acea]>[B^dgb]- | [Bdgb][c^dgc']- [cdgc']<[Bdgb] | [A^dga]>[Bdgb]- [Bdgb]<[Ada] | %82
 [G_Bde]>[GBdg]- [GBdg][ABda]- | [ABda]<[G_Bdg] [^GBd^g]>[A^cea]- | [Acea]/A/^c/e/ [cg]/G/c/e/ | %85
 [^cf]/F/c/[Gce]/- [Gce]<[Ff] | [Acfa]>[cfac']- [cfac'][d^fad']- | %87
 [dfad']<[c^fac'] [Acfa]>[Gceg]- | [Gceg][^Gce^g]- [Gceg]<[Acea] | [ega^c'e']2 z2 | %90
 [e^fae'][^d^d'] [eae'][c=fac']- | [cfac'][cc'] [cfa]2 | [cegc']2 z2 | z4 || z2 [Ge]2 | %95
 z [Ge] [^F^d][Ge] | [Af][Ge] [E^c][^CGA]- | [CGA]4 | [Ge][^Fd] [Ge][Fd] | [Ge] [^Fcd]2 [CFA]- | %100
 [CFA] z/[I:staff +1] [^F,^F]/[I:staff -1]z/[I:staff +1][G,G]/[I:staff -1]z/[I:staff +1][^G,^G]/ | %101
[I:staff -1]z/[I:staff +1][A,A]/[I:staff -1]z/[I:staff +1][^G,^G]/[I:staff -1]z/[I:staff +1][A,A]/[I:staff -1]z/[I:staff +1][^A,^A]/ | %102
[I:staff -1] [B,DF]2 [DFBd]2 | z [Fd] [E^c][Fd] | [Ge][Fd] [DB][B,FG]- | [B,FG]3 [Fd] | %106
 [EGc]2 [EGc]2 | (3[EGc]2 [EGd]2 [E^d]2 | (3[E^GBde]2 [^F^f]2 [=Gg]2 | (3[^GBde^g]2 [Aa]2 [Bb]2 | %110
 [Aea]2 [eg^c'e']2 | z [ege'] [^d^f^d'][ege'] | [faf'][ege'] [^c^c'][Aca]- | [Aca]4 | %114
 [e^fe'][dfd'] [efe'][dfd'] | [e^fe'] [dfd']2 [Acfa] | z/ A,/[CD^F] C/[DFA]D/ | [^FAd]F/[Acd]/ z2 | %118
 [GBdg]2 [dfbd']2 | z [dfd'] [^ce^c'][dfd'] | [ege'] [dfd']2 [GBg] | z [ege'] [_e_g_e']<[dfd'] | %122
 [cegc']2 [cegc']2 | (3!arpeggio![cegc']2 [dfd']2 [^d^f^d']2 | [egc'e']2 z2 | %125
!mf! !fermata![FB^dg]4 ||!f![Q:1/4=147]"^Faster"{c^cd^d} e[eg] a[=ceg]- | [ceg][cea] c'2 | %128
 b/c'/b/c'/ b[^dg] | z2{^dga^a} [dgb]2 | [_Bdea][Bg] [da][Bdg]- | [Bdg] [_Bda]2 [Bda] | %132
 [A^ceg]2 [Acea]>[Aceg]- | [Aceg]/(A/B/=c/ (3^c/d/e/(3f/g/^g/ | [fa])[cfb] [fc'][c^fa] | %135
 z/ (A/B/c/ d/^d/(3e/f/^f/ | [ceg])[ce^g] [ca][A^ce] | z/ (A/B/^c/ (3d/e/^f/(3g/a/b/ | %138
 [f_ad'])[efae'] [fad'][efae']- | [efae']/_e'/[f_ad'] [efa=e'][fad'] | [fbd'g']2 z2 | %141
 z (b/c'/ b/a/g/f/ | e)[ceg] [ea][ceg]- | [ceg][ceg] ac' | b/c'/b [_egc'][Bea] | z [B_e] g[Beb] | %146
 [_Bda]2 [Bdg][Bda]- | [Bda][_Bdg] (3(B/c/d/(3e/f/g/ | [A^cea]2) [Acea][Aceg] | %149
 z (A/B/ (3^c/d/e/(3f/g/^g/ | [fa])[cfb] [fc'][c^fa] | z/ (A/B/c/ d/^d/(3e/f/^f/ | %152
 [ceg])[ce^g] [ea][e=gae'] | z (3(A/B/^c/ (3d/e/f/g/4a/4b/4^c'/4 | %154
[M:2/2]"^Swing 8ths."[Q:1/2=62]"^A tempo" .[fc'e']) z z [fac'e'] .[fac'e'] z z [fgb^d'g'] | %155
 .[fgb^d'g'] z z [GBdfg] [GBdfg]4 || %156
"^Grandioso" [EGce][Gceg][Acea][Gceg]- [Gceg][Gceg]- (3[Gceg][Aa][^A^a] | %157
 [B^dgb][cdgc'] (3[Bdgb][_B_b][Adga]- [Adga]2 z [^Dd] | %158
 [EG_Bde][GBdg][ABda][GBdg]- [GBdg][^Fd^f][GBdg][^G^g] | %159
 [A^cega][_Bce_b] (3[Acea][_A_a][G=Aceg]- [GAceg]2!8va(! z [^G^g]!8va)! | %160
 [Acfa][Bfb][cc'][Ac^fa]- a3 [_A_a] | [Gceg][^G^g][Aa][e=ga^c'e']- e'3 z | %162
 .[fac'e']2 z .[fac'e'] .[fac'e'] z z .[fgb^d'g'] | %163
 .[fgb^d'g']2 z [fgbd'g'] .[fgbd'g']2 z [^G^g] || %164
 (3[Acea]2 [Gceg]2 [Acea]2 (3[Gceg]2 [Acea]2 [Gceg]2 | %165
 (3[B^dgb]2 [Adga]2 [Bdgb]2 (3[Adga]2 [Bdgb]2 [Adga]2 | %166
 (3[A_Bda]2 [GBdg]2 [ABda]2 (3[GBdg]2 [ABda]2 [GBdg]2 | %167
 [^ca]/A/c/e/ [cg]/G/c/e/ [cf]/F/c/e/[Ec][^G^g] | [Acfa][Bfb][cfac'][Ac_e^fa]- a2 z [^G^g] | %169
 [Gceg][^G^g][Aa][e=ga^c'e']- e'3 z | .[fac'e']2 z [FAce] .[FAce]2 z [FGB^dg] | %171
 .[FGB^dg]2 z[K:bass] [F,G,B,^DG] [F,G,B,DG] z [F,G,B,=DG] z | %172
 .[_eg_bd']2 z [fga^c'f'] .[fgbd'f']2 z!8va(! [_g=c'_e'_g'_a'] | %173
 .[_gc'_e'_g'_a']2!8va)! z[Q:1/4=110] [_Gc_eg_a][Q:1/4=115]!<(! .[Gcega]2[Q:1/4=107] .[Gcega]2!<)![Q:1/4=110][Q:1/4=101][Q:1/4=98] || %174
[K:Db][Q:1/2=55]"^Slower" [Bdfb][Adfa][Bdb][Adfa]- [Adfa]3 [=B=b] | %175
 [c=eac'][dd'][cec'][Bb]- [Bb] [Bceb]2 [=A=a] | %176
[Q:1/4=110] [B_ceb][Aa][Q:1/4=115].[Bceb][Acea]- [Acea][Bb][Aa][Q:1/4=117][=A=a] | %177
 (3[B=dfb]2 [_cdf_c']2 [Bdfb]2 (3[Adfa]2 [Bdfb]2 [Ada]2 | %178
 [Bdgb][cc'].[dd'][Bd=gb]- [Bdgb] [__Bd__b]2 A- | %179
!<(! [Adfa][=A=a][Bb][f_a=d'f']-[Q:1/4=107] [fad'f']2[Q:1/4=102]!8va(! [f'a'=d''f'']2!<)!!8va)! | %180
[Q:1/4=110] .[gbd'f'] z[Q:1/4=115] z [gbd'f'] .[gbd'f'] z z [gc'=e'a'][Q:1/4=117] | %181
 .[gc'=e'a'] z z [gc'e'a'] [gc'e'a'][Q:1/4=115] z[Q:1/4=125] [gc'e'a'] z | %182
[Q:1/4=100]"^Straight 8ths.""_accel." !>![fad'f'][Q:1/4=125][Dd][CFAc][Q:1/4=127][_C_c] [B,FB][Q:1/4=129][__B,__B][Q:1/4=135][A,A][Q:1/4=130][=G,=G] | %183
 [A,A][Q:1/4=132][Acea][Q:1/4=136][Acea][Q:1/4=140][=Ace=a][Q:1/4=145] [Bceb][Q:1/4=148][cc'][Bb][Q:1/4=150][_A_a] | %184
[Q:1/4=145] !>![dfad'][Q:1/4=150][DFd][Cc][_C_c][Q:1/4=155] [B,B][__B,__B][Q:1/4=158][A,A][=G,=G] | %185
[Q:1/4=154] [A,A][Acea][Acea][=A=a] [Beb][Q:1/4=156][cc'][Bb][_A_a] | %186
[Q:1/4=152]"^Swing 8ths." !>![dfad']3[Q:1/4=150] !>![dfad'] !>![dfad']3[Q:1/4=145] !>![fad'f'] | %187
 !>![fad'f']3[Q:1/4=142][Q:1/4=140] !>![ad'f'a'] !>![ad'f'a']3[Q:1/4=145][Q:1/4=138][Q:1/4=140]!8va(! !>![__bd'g'__b'] | %188
[Q:1/4=135] !>![__bd'g'__b']2!8va)! (!>![__Bdb]/g/(3B/d/g/ !>![GBg]/d/(3G/B/d/ !>![DGd]/B/(3D/G/B/ | %189
 !>![__B,D__B]/G/(3B,/D/G/[Q:1/4=130] [G,B,G]/D/[K:bass](3G,/B,/D/ !>!.[E,A,DE]2)[K:treble] (3[Aa][_Bb][cc'] | %190
 !>![dfad']3 !>![fad'f'] !>![fad'f']3[Q:1/4=128] !>![gbd'g'] | %191
 !>![gbd'g']3 !>![=g=a^c'=e'=g'][Q:1/4=126] !>![gac'e'g']3 !>![_ad'f'a'] | %192
 !>![ad'f'a'][Adfa] [Adfa]2 [A,DFA][F,A,DF][F,A,DF][E,A,] | %193
"^Straight 8ths."!<(! !>![E,A,][Aa][Q:1/4=130][=G=g][Q:1/4=138][Aa][Q:1/4=150] [=A=a][Q:1/4=160][Bb][Q:1/4=170][=B=b][cc']!<)! | %194
[M:6/4][Q:1/4=150]!ff! [dfad']2[Q:1/4=140]!8va(! !>!.[d'f'a'd'']2!8va)![Q:1/4=130] [dfad']2 .[DFAd]2[Q:1/4=120][I:staff +1] [D,F,A,D]4 | %195
[M:4/4][I:staff -1] !>![DG__Bd]4 (3!>![EGBe]2 !>![DGBd]2 !>![EGBe]2 | %196
[M:11/8] !>![FAdf]2[Q:1/4=200][I:staff +1] (D,/F,/A,/[I:staff -1]D/F/A/d/f/a/!8va(!d'/f'/a'/d''/f''/- !fermata!f''2)!8va)! | %197
[M:7/4][Q:1/4=120]!f! !///-!D4 F,4 D2- !fermata!D4 |] %198
V:2
 z [D,,D,].[D,,D,] z z [D,,D,].[D,,D,] z | z [G,,,G,,].[G,,,G,,] z z [G,,,G,,].[G,,,G,,] z || %2
 .[C,,G,,C,]2 .[G,CE]2 .[G,,G,]2 .[G,CE]B,,- | %3
!ped! [B,,B,]2!ped-up! .[^D,G,B,]2 .[G,,G,]2 .[D,G,B,]_B,,- | %4
!ped! [B,,_B,]2!ped-up! .[D,G,B,]2!ped! [G,,G,]2!ped-up! .[D,G,B,]A,,- | %5
!ped! [A,,E,G,]2!ped-up! .[E,G,^C]2!ped! [E,,E,]2!ped-up! .[G,CE]F,,- | %6
!ped! [F,,C,A,]F,-!ped-up!.[F,A,D]^F,,-!ped! [F,,^D,]^F,-!ped-up!.[F,A,^D]G,,- | %7
!ped! [G,,E,G,]_B,,-!ped-up!.[B,,E,G,]A,,-!ped! [A,,^C,E,G,][A,,E,A,][_A,,_A,][G,,G,]!ped-up! | %8
!ped! [^F,,D,^F,]2!ped-up! z !arpeggio![D,,A,,F,]-!ped! [D,,A,,F,]2 [D,,A,,D,][G,,B,,D,=F,]!ped-up! | %9
 z [G,,B,,F,] z [G,,B,,F,] [A,,C,F,][A,,C,F,][B,,D,F,]C,,- || %10
!ped! [C,,G,,E,]2!ped-up! .[C,E,G,]2!ped! [G,,,G,,]2!ped-up! .[E,G,]B,,,- | %11
!ped! [B,,,B,,]2!ped-up! .[B,,^D,G,]2!ped! [B,,,B,,]2!ped-up! .[B,,D,G,]_B,,- | %12
!ped! [_B,,,B,,]2!ped-up! .[_B,,D,E,G,]2!ped! [B,,,B,,]2 [D,G,]G,,!ped-up! | %13
!ped! [A,,A,]^C,!ped-up!.[A,,E,G,]E,,-!ped! [E,,C,E,]C,-!ped-up![C,E,G,A,]F,,- | %14
 .[F,,C,A,]2 .[F,,C,A,]2 .[^F,,^D,A,]2 [F,,D,]2 | %15
!ped! [G,,E,G,]2!ped-up! .[G,,E,G,]A,,-!ped! [A,,^C,E,G,][A,,_E,G,]- (3[A,,E,G,][_A,,_A,][G,,G,]!ped-up! | %16
!ped! [^F,,^F,]2!ped-up! .[C,F,A,][G,,D,=F,]-!ped! [G,,D,F,]2 [G,,D,F,]!ped-up![G,,C,] | %17
 z [C,,C,] z [C,,C,] [B,,,B,,][B,,,B,,][_B,,,_B,,][B,,,B,,] || %18
!ped! [A,,,A,,]2!ped-up! .[E,G,A,^C]^C,-!ped! [^C,,C,]2!ped-up! .[E,G,A,C]E,,- | %19
!ped! [E,,^C,E,]2!ped-up! .[E,G,A,]A,,,- [A,,,E,,A,,]!ped![A,,A,] (3[G,,G,][E,,E,][_E,,_E,]!ped-up! | %20
 .[D,,D,]2 .[D,^F,A,C]2!8vb(! .D,,,2!8vb)! .[D,F,A,C]2 | %21
 [D,,A,,D,][D,,D,][D,,D,][D,,D,] [E,,E,][F,,F,][^F,,^F,]G,,- | %22
 .[G,,D,F,]2 .[F,G,B,D]2 .[G,,,G,,]2 .[D,F,G,B,]G,,- | %23
 .[G,,D,B,]2 .[D,F,G,B,]2 [G,,,G,,]2!ped! (3[G,,,G,,][A,,,A,,][B,,,B,,]!ped-up! | %24
 .[C,,C,]2 .[E,G,C]2!ped! (3[E,G,C]2 [D,F,^G,D]2 [^D,^F,A,^D]2!ped-up! | %25
!ped! [E,G,_B,E]2 [G,,G,]2!ped-up!!ped! [G,,^D,G,]2 [G,,,G,,]2!ped-up! || %26
 .[C,,G,,C,]E,G,G,- .[G,,G,]E,G,B,, | .^D,D,[G,B,]B,, .G,D,G,_B,, | .D,D,G,_B,, D,G,_B,A,,- | %29
 [A,,^C,E,]A,,,-[A,,,A,,]B,,,- [B,,,B,,]^C,,- [C,,C,]2 | %30
 .[F,,C,A,]2 .[F,,C,A,]2 .[^F,,^D,A,]2 .[F,,D,A,]2 | .[G,,E,G,]2 .[E,G,]^G,, A,, z (3A,,E,,_E,, | %32
 z [D,,D,].[D,,A,,D,] z z [D,,A,,D,].[D,,A,,D,] z | %33
 z [G,,,G,,].[G,,,G,,] z z [G,,,G,,].[G,,,G,,]C,,- || %34
!ped! [C,,G,,E,]2 [G,CE]2!ped-up!!ped! [G,,,G,,]2 [G,CE]B,,,-!ped-up! | %35
!ped! [B,,,B,,]2 [^D,G,B,]2!ped-up!!ped! [G,,,G,,]2 [D,G,B,]_B,,,-!ped-up! | %36
!ped! [B,,,_B,,]2 [E,G,_B,D]2!ped-up!!ped! [_B,,,B,,]2 [E,G,B,D]2!ped-up! | %37
 .[A,,,E,,A,,]2 .[B,,,B,,]2 .[C,,C,]2 .[^C,,^C,]F,,- | %38
!ped! [F,,C,A,]2!ped-up! .[F,A,C]2!ped! [^F,,^F,]2!ped-up! .[F,A,C^D]G,,- | %39
!ped! [G,,E,G,]^G,,A,,A,,-!ped-up!!ped! [A,,^C,E,A,][A,,A,]- (3[A,,A,][E,,E,][_E,,_E,]!ped-up! | %40
 z [D,,A,,D,].[D,,A,,D,] z z [D,,A,,D,].[D,,A,,D,] z | %41
 z [G,,,G,,].[G,,,G,,] z z [G,,,G,,].[G,,,G,,]C,,- || %42
!ped! [C,,G,,E,]2 [G,CE]2!ped-up!!ped! [G,,,G,,]2 [G,CE]B,,,-!ped-up! | %43
!ped! [B,,,B,,]2 [^D,G,B,]2!ped-up!!ped! [^D,,D,]2 [D,G,B,]_B,,,-!ped-up! | %44
!ped! [B,,,_B,,]2 [G,_B,D]2!ped-up!!ped! [G,,,G,,]2 [G,B,D]2!ped-up! | %45
 .[A,,E,G,]2 .[A,,,A,,]2 .[B,,,B,,]2 [^C,,^C,]F,,- | %46
!ped! [F,,C,A,]2!ped-up! .[A,CF]2!ped! [^F,,^F,]2!ped-up! .[F,A,C^D]G,,- | %47
!ped! [G,,C,G,][^G,,^G,]!ped-up![A,,A,][A,,^C,E,A,]-!ped! [A,,C,E,A,][A,,E,=G,] [A,,E,G,]2!ped-up! | %48
 z [D,,A,,D,].[D,,A,,D,] z z [D,,A,,D,].[D,,A,,D,] z | %49
 z [G,,,D,,G,,].[G,,,D,,G,,] z z [G,,,D,,G,,].[G,,,D,,G,,] z | %50
 [C,E,C] z z [C,E,C] [_B,,E,_B,] z z [B,,E,B,] | [A,,C,A,] z z [A,,C,A,] [_A,,C,_A,] z z A,, | %52
!ped! [G,,B,,G,]8 |[M:6/4] !arpeggio![G,,^D,B,]4 (3:2:2z2 G,,,4- !fermata!G,,,2 x2!ped-up! || %54
[M:2/2]!ped! C,G, E2- E4!ped-up! |!ped! B,,G,^DG- G4!ped-up! |!ped! _B,,G, D2- D4!ped-up! | %57
[M:7/4]!ped! A,,G,^CE/C/ E8!ped-up! z z/ F,,/- || %58
[M:2/2] .[F,,C,A,]2 .[A,CF][F,,F,] .[^F,,^F,]2 .[F,A,C^D][F,,F,] | %59
 .[G,,G,]2 .[^G,,^G,][A,,A,]!ped! [A,,^C,E,A,]2 (3[A,,C,E,A,][E,,E,][_E,,_E,]!ped-up! | %60
 z [D,,A,,D,].[D,,A,,D,] z z [D,,A,,D,].[D,,A,,D,] z | %61
 z [G,,,D,,G,,].[G,,,D,,G,,] z z [G,,,D,,G,,].[G,,,D,,G,,]C,,- || %62
[M:2/4]!ped! [C,,G,,E,]!ped-up!.[G,CE]!ped! [G,,G,]!ped-up!.[G,CE] | %63
!ped! [C,,C,]!ped-up!.[G,CE]!ped! [G,,G,]!ped-up!.[G,CE] | %64
"_simile"!ped! [B,,,B,,]!ped-up!.[^D,G,B,]!ped! [^D,,D,]!ped-up!.[D,G,B,] | %65
!ped! [G,,G,]!ped-up!.[^D,G,B,]!ped! [B,,,B,,]!ped-up!.[D,G,B,] | %66
!ped! [_B,,,_B,,]!ped-up!.[G,_B,D]!ped! [G,,,G,,]!ped-up!.[G,B,D] | %67
!ped! [_B,,,_B,,]!ped-up!.[G,_B,D]!ped! [G,,,G,,]!ped-up!.[G,B,D] | %68
!ped! [A,,,A,,]!ped-up!.[G,A,^CE]!ped! [B,,,B,,]!ped-up!.[A,CE] | %69
!ped! [^C,,^C,]!ped-up!.[G,^CE]!ped! [A,,,A,,]!ped-up!.[A,CE]/F,,/- | %70
!ped! [F,,A,].[A,CF]!ped-up!!ped! [C,,C,]!ped-up!.[A,C^F] | %71
!ped! [^F,,^F,].[A,C^D]!ped-up!!ped! [F,,F,]!ped-up!.[A,CD] | %72
!ped! [G,,G,].[G,CE]!ped-up!!ped! [G,,G,]!ped-up!.[A,^CE] | %73
!ped! [A,,A,][A,,A,]!ped-up!!ped! [_A,,_A,]!ped-up![G,,G,] | %74
!ped! [F,,F,].[F,A,D]!ped-up!!ped! [D,,D,].[F,A,D]!ped-up! | %75
!ped! [F,,F,].[F,A,D]!ped-up!!ped! [D,,D,]!ped-up!.[F,A,D] | %76
!ped! [G,,F,].[F,G,B,]!ped-up!!ped! [A,,A,]!ped-up!.[G,B,D] | %77
!ped! [B,,B,].[B,DF]!ped-up!!ped! [G,,G,]!ped-up!.[F,G,B,D]/C,,/- | %78
!ped! [C,,G,,E,].[G,CE]!ped-up!!ped! [G,,,G,,]!ped-up!.[G,CE] | %79
!ped! [C,,C,].[G,CE]!ped-up!!ped! [G,,,G,,]!ped-up!.[G,CE] | %80
!ped! [B,,,B,,].[^D,G,B,]!ped-up!!ped! [^D,,D,]!ped-up!.[D,G,B,] | %81
!ped! [G,,G,].[^D,G,B,]!ped-up!!ped! [B,,,B,,]!ped-up!.[D,G,B,] | %82
!ped! [_B,,,_B,,].[G,_B,D]!ped-up!!ped! [G,,,G,,]!ped-up!.[G,B,D] | %83
!ped! [_B,,,_B,,].[G,_B,D]!ped-up!!ped! [G,,,G,,]!ped-up!.[G,B,D] | %84
!ped! [A,,,A,,].[G,^CE]!ped-up!!ped! [B,,,B,,]!ped-up!.[G,A,CE] | %85
!ped! [^C,,^C,].[A,^CE]!ped-up!!ped! [A,,,A,,]!ped-up!.[A,CE] | %86
!ped! [F,,F,].[A,CF]!ped-up!!ped! [F,,F,]!ped-up!.[A,CF] | %87
!ped! [^F,,^F,].[F,C^D]!ped-up!!ped! [F,,F,]!ped-up!.[F,CD] | %88
!ped! [G,,G,].[G,CE]!ped-up!!ped! [G,,G,]!ped-up!.[G,CE] | %89
!ped! [A,,E,G,][G,,G,]!ped-up!!ped! [E,,E,]!ped-up![^C,,^C,]/D,,/- | %90
!ped! [D,,A,,^F,].[D,F,A,C]!ped-up!!ped! [D,,D,].[D,=F,G,B,]!ped-up! | %91
!ped! [G,,F,].[D,G,B,]!ped-up!!ped! [G,,G,]!ped-up!.[D,G,B,] | %92
!ped! [C,G,C][E,G,C]!ped-up!!ped! [G,,G,]!ped-up![E,G,C] | %93
!ped! [C,C]/z/[B,,B,]/z/!ped-up!!ped![_B,,_B,]/z/[B,,B,]/ z/!ped-up! || %94
!ped! [A,,E,A,].[G,A,^C]!ped-up!!ped! [E,,E,].[G,A,C]!ped-up! | %95
!ped! [A,,A,].[G,A,^C]!ped-up!!ped! E,,!ped-up!.[E,G,A,C] | %96
!ped! [^C,,^C,].[A,,,A,,]!ped-up!!ped! [B,,,B,,]!ped-up!.[=C,,=C,] | %97
!ped! [^C,,^C,].[E,G,A,^C]!ped-up!!ped! [E,,E,]!ped-up![_E,,_E,] | %98
 .[D,,D,].[^F,A,C]!ped! [A,,,A,,].[F,A,C]!ped-up! | %99
!ped! [D,,D,].[^F,A,C]!ped-up!!ped! [A,,,A,,]!ped-up!.[D,F,A,] | %100
!ped! [D,,D,][D,,D,]!ped-up!!ped! [E,,E,]!ped-up![F,,F,] | %101
!ped! [^F,,^F,][^E,,^E,]!ped-up!!ped! [F,,F,][F,,F,]!ped-up! | %102
!ped! [G,,D,F,].[F,G,B,]!ped-up!!ped! [D,,D,].[F,G,B,]!ped-up! | %103
!ped! [G,,D,F,].[F,G,B,]!ped-up!!ped! [D,,D,]!ped-up!.[D,F,G,B,] | %104
!ped! [G,,G,].[F,G,B,]!ped-up!!ped! [D,,D,]!ped-up!.[D,F,G,] | %105
!ped! [G,,,G,,].[D,F,G,]!ped-up!!ped! [A,,,A,,]!ped-up!.[B,,,B,,] | %106
!ped! [C,,C,].[E,G,C]!ped-up!!ped! [G,,,G,,]!ped-up!.[E,G,C] | %107
!ped! [C,,C,].[E,G,C]!ped-up!!ped! [G,,G,]!ped-up!.[E,G,C] | %108
!ped! [E,,E,][E,^G,B,D]!ped-up!!ped! [B,,,B,,]!ped-up![E,G,B,D] | %109
!ped! [E,,E,][D,^G,B,D]!ped-up!!ped! [^F,,^F,][E,G,B,D]!ped-up! | %110
!ped! [A,,A,][G,A,^CE]!ped-up!!ped! [E,,E,][G,A,CE]!ped-up! | %111
 [^C,,^C,].[G,A,^CE] [A,,,A,,].[G,A,CE]/A,,,/- | .[A,,,A,,].[G,A,^CE] .[^C,,^C,].[A,,,A,,] | %113
 .[G,A,^CE]!ped![E,,E,] .[G,A,CE].[_E,,_E,]!ped-up! | %114
!ped! [D,,A,,D,].[D,^F,A,C]!ped-up!!ped! [A,,,A,,].[D,F,A,C]!ped-up! | %115
!ped! [D,,D,].[D,^F,A,C]!ped-up!!ped! [A,,,A,,]!ped-up!.[D,F,A,C] | %116
!ped! [D,,D,]>[^F,,^F,]-!ped-up!!ped! [F,,F,]!ped-up![A,,A,]- | %117
!ped! [A,,A,]<[D,D]!ped-up!!ped! [C,C][A,,A,]!ped-up! | %118
!ped! [G,,D,G,].[B,DF]!ped-up!!ped! [D,,D,].[G,B,DF]!ped-up! | %119
!ped! [G,,,G,,].[G,B,DF]!ped-up!!ped! [D,,D,]!ped-up!.[G,B,DF]/G,,/- | %120
!ped! [G,,D,F,].[G,B,DF]!ped-up!!ped! [D,,D,]!ped-up!.[B,DF] | %121
!ped! [G,,G,][G,,D,G,]!ped-up!!ped! [A,,A,]!ped-up![B,,B,] | %122
!ped! [C,C].[G,CE]!ped-up!!ped! [G,,G,].[G,CE]!ped-up! | %123
!ped! [C,G,C].[G,CE]!ped-up!!ped! [G,,G,]!ped-up!.[G,CE] | [C,,C,]2 z2 | %125
!ped! !arpeggio!!fermata![G,,^D,G,]4!ped-up! || .C,,.[G,CE]!ped!!8vb(! G,,,!8vb)!.[G,CE]!ped-up! | %127
!ped! C,,.[G,CE]!ped-up!!ped! G,,!ped-up!.[G,CE] | %128
"_simile"!ped! [G,,G,].[_E,G,B,]!ped-up!!ped! [_E,,E,]!ped-up!.[E,G,B,] | %129
!ped! [G,,G,].[_E,G,B,]!ped-up!!ped! [_E,,E,]!ped-up!.[E,G,B,] | %130
!ped! [_B,,_B,].[G,B,D]!ped-up!!ped! [G,,G,]!ped-up!.[G,B,D] | %131
!ped! [_B,,_B,].[G,B,D]!ped-up!!ped! [G,,G,]!ped-up!.[G,B,D] | %132
!ped! [A,,,A,,].[A,^CE]!ped-up!!ped! [^C,,^C,]!ped-up!.[A,CE] | %133
!ped! [E,,E,].[A,^CE]!ped-up!!ped! [A,,,A,,]!ped-up!.[G,A,CE] | %134
!ped! [F,,F,].[A,CF]!ped-up!!ped! [F,,F,]!ped-up!.[A,CF] | %135
!ped! [D,,D,].[^F,A,C]!ped-up!!ped! [D,,D,]!ped-up!.[D,F,A,C] | %136
!ped! [G,,G,].[G,CE]!ped-up!!ped! [G,,G,]!ped-up!.[G,CE] | %137
!ped! [A,,A,].[E,G,A,^C]!ped-up!!ped! [E,,E,]!ped-up!.[E,G,A,C] | %138
!ped! [F,,F,].[F,_A,D]!ped-up!!ped! [F,,F,]!ped-up!.[F,A,D] | %139
!ped! [F,,F,].[F,_A,CD]!ped-up!!ped! [F,,F,]!ped-up!.[F,A,CD] | %140
!ped! [G,,G,][G,,D,G,] [G,,D,A,]!ped-up!.[^A,,^A,] | [B,,B,]2 z z/ C,,/- | %142
!ped! [C,,E,].[G,CE]!ped-up!!ped! [G,,G,]!ped-up!.[G,CE] | %143
!ped! [C,,C,].[G,CE]!ped-up!!ped! [G,,G,]!ped-up!.[G,CE] | %144
!ped! [B,,B,].[_E,G,B,]!ped-up!!ped! [_E,,E,]!ped-up!.[E,G,B,] | %145
!ped! [G,,G,].[_E,G,B,]!ped-up!!ped! [_E,,E,]!ped-up!.[E,G,B,] | %146
!ped! [_B,,_B,].[G,B,D]!ped-up!!ped! [G,,G,]!ped-up!.[G,B,D] | %147
!ped! [_B,,_B,].[G,B,D]!ped-up!!ped! [G,,G,]!ped-up!.[G,B,D] | %148
!ped! [A,,E,G,].[A,^CE]!ped-up!!ped! [E,,E,]!ped-up!.[A,CE] | %149
!ped! [A,,A,].[A,^CE]!ped-up!!ped! [A,,A,]!ped-up!.[G,A,CE] | %150
!ped! [F,,F,].[A,CF]!ped-up!!ped! [F,,F,]!ped-up!.[A,CF] | %151
!ped! [D,,D,].[^F,A,C]!ped-up!!ped! [D,,D,]!ped-up!.[D,F,A,C] | %152
!ped! [G,,G,].[G,CE]!ped-up!!ped! [G,,G,]!ped-up!.[G,CE] | %153
!ped! [A,,A,].[E,G,A,^C]!ped-up!!ped! [A,,A,]!ped-up!.[E,G,A,C] | %154
[M:2/2] z [D,,A,,D,].[D,,A,,D,] z z [D,,A,,D,].[D,,A,,D,] [G,B,^D] | %155
 .[G,B,^D] [G,,,G,,].[G,,,G,,] [G,B,=DF]!ped-up! .[G,B,DF] [G,,,G,,]!ped![G,,,G,,] z/ C,,/- || %156
!ped! [C,,G,,E,]2 .[G,CE]2!ped-up!!ped! [G,,,G,,]2 .[G,CE]2!ped-up! | %157
!ped! [B,,,B,,]2 .[^D,G,B,]2!ped-up!!ped! [^D,,D,][G,,G,]!ped-up! [B,,B,]2 | %158
!ped! [_B,,_B,]2 .[E,G,B,D]2!ped-up!!ped! [G,,,G,,]2!ped-up! .[E,G,B,D]A,,,- | %159
!ped! [A,,,E,,A,,]2 .[G,A,^CE]2!ped-up!!ped! [E,,B,,E,]2!ped-up!!ped! [A,,,A,,]2 | %160
!8vb(! .[F,,,C,,F,,]2 .[F,,,C,,F,,]2 .[^F,,,^F,,]2 .[F,,,F,,]2!8vb)! | %161
 .[G,,,G,,]2 .[G,,,G,,]2!ped! [G,,,E,,A,,]2 [G,A,^CE]2!ped-up! | %162
 .[FAce][K:bass] [D,,D,].[D,,D,][K:treble] [FAce] .[FAce][K:bass] [D,,D,].[D,,D,][K:treble] [GB^d] | %163
 .[GB^d][K:bass] [G,,,G,,].[G,,,G,,][K:treble] [GBd] .[GBd][K:bass] [G,,,G,,][G,,,G,,]C,,- || %164
!ped! [C,,G,,E,]2 .[G,CE]2!ped-up!!ped! [G,,,G,,]2 .[G,CE]B,,,-!ped-up! | %165
!ped! [B,,,B,,]2 [^D,G,B,]2!ped-up!!ped! [G,,G,]2!ped-up! [D,G,B,]_B,,- | %166
!ped! [B,,_B,]2 [E,G,B,D]2!ped-up!!ped! [G,,G,]2 [E,G,B,D]2!ped-up! | %167
 .[A,,,E,,A,,]2 .[B,,,B,,]2 .[C,,C,]2 [^C,,^C,]F,,- | %168
!ped! [F,,C,A,]2 .[F,A,CF]2!ped-up!!ped! .[^F,,^F,]2 .[F,A,C^D]G,,-!ped-up! | %169
!ped! [G,,G,]2 .[G,CE]!ped-up![^G,,^G,]!ped! [A,,A,]2!ped-up! [A,,^C,E,=G,]2 | %170
 z [D,,A,,D,].[D,,A,,D,] z z [D,,A,,D,].[D,,A,,D,] z | %171
 z [G,,D,G,] .[G,,D,G,]2"_Straight 8ths"!ped! z [G,,,G,,]!ped-up! z [G,,,G,,] | %172
 z [_B,,_E,_B,] .[B,,E,B,]2 z [B,,E,B,] .[B,,E,B,]2 | %173
 z [_A,,_E,_G,] .[A,,E,G,]2!ped! (3[_A,,,A,,][_B,,,_B,,][=B,,,=B,,]!ped-up!!ped! (3[C,,C,][_D,,_D,][_E,,E,]!ped-up! || %174
[K:Db]!ped! [D,,A,,D,]2 .[F,A,D]2!ped-up!!ped! [A,,,A,,]2 [F,A,D]A,,-!ped-up! | %175
!ped! [C,,A,,C,]2 [=E,A,C]2!ped-up!!ped! [A,,,A,,]2 [E,A,C]_C,,-!ped-up! | %176
!ped! [C,,_C,]2 [E,A,_C]2!ped-up!!ped! [A,,,A,,]2 [E,A,C]B,,,-!ped-up! | %177
!ped! [B,,,F,,=D,]2 [F,A,B,=D]=D,,-!ped-up!!ped! [D,,B,,D,]2 [F,A,B,D]G,,-!ped-up! | %178
!ped! [G,,D,B,]2 .[G,B,D]2!ped-up!!ped! [=G,,=G,]2 .[G,B,D=E]A,,-!ped-up! | %179
!ped! [A,,A,]2 .[A,DF]2!ped-up!!ped! [B,,=D,F,A,]2!ped-up! [B,=DFA]2 | %180
 .[E,G,B,D]!8vb(! [E,,,E,,].[E,,,E,,]!8vb)! [E,G,B,D] .[E,G,B,D]!8vb(! [E,,,E,,].[E,,,E,,]!8vb)! [E,G,A,C] | %181
 .[E,G,A,C] [A,,,A,,].[A,,,A,,] [G,A,C=E]"_Straight 8ths"!ped! [G,A,CE] [A,,,A,,] [G,A,CE]2!ped-up! | %182
!ped! z [D,,D,][C,,C,][_C,,_C,]!ped-up!!ped! [B,,,B,,][__B,,,__B,,][A,,,A,,][=G,,,=G,,]!ped-up! | %183
!ped! [A,,,A,,][A,CE][A,CE][A,CE] [A,CE][A,CE][A,CE][A,CE]!ped-up! | %184
!ped! z [D,,D,][C,,C,][_C,,_C,]!ped-up!!ped! [B,,,B,,][__B,,,__B,,][A,,,A,,][=G,,,=G,,]!ped-up! | %185
!ped! [A,,,A,,][A,CE][A,CE][A,CE] [A,CE][A,CE][A,CE][A,CE]!ped-up! | %186
!ped! !>![A,DF]3 !>![A,DF] !>![A,DF]3 !>![A,DF]!ped-up! | !>![A,DF]3 !>![DFA] !>![DFA]3 z | %188
!ped! !>![DG__B]2[K:bass] !>![G,,,G,,]2 [G,__B,D]2 [D,G,B,]2!ped-up! | %189
 [__B,,D,G,]2 [G,,B,,D,]2!ped-up!!ped! !>![A,,,A,,]2 [E,G,A,C]2 | %190
!ped! !>![F,A,D]3 !>![F,A,D] !>![F,A,D]3 !>![G,B,D]!ped-up! | %191
!ped! !>![G,B,D]3!ped-up!!ped! !>![=G,=A,^C=E] !>![G,A,CE]3 !>![_A,DF]!ped-up! | %192
!ped! !>![A,DF][A,,,A,,] [A,,,A,,]2 [D,,D,]A,,,-[A,,,A,,][A,,,A,,]!ped-up! | %193
!ped! !>![A,,,E,,A,,]A,=G,A, G,_G,F,E,!ped-up! | %194
[M:6/4]!ped! D,2 !>!.[D,,D,]2!ped-up!!ped![I:staff -1] [DFA]2[I:staff +1] .[D,F,A,]2!ped-up!!ped! [F,,A,,]2!8vb(! .[D,,,D,,]2!8vb)! | %195
[M:4/4]!ped! !>![D,G,__B,]2 .[G,,,G,,]2 (3!>![D,G,B,]2 !>![D,G,B,]2 !>![D,G,B,]2 | x2!ped-up! %196
[M:11/8]!8vb(!!ped! !>![D,,,D,,]2!ped-up!!8vb)! (F,,/A,,/D,/F,/A,/D/[I:staff -1]F/A/d/!8va(!f/a/d'/f'/a'/- a'2)!8va)! | %197
[M:7/4][I:staff +1] !///-!D,,4 D,4 D,,2!8vb(! !fermata![D,,,D,,]4!8vb)! |] %198
V:3
 x8 | x8 || x8 | x8 | _B3 B- x4 | ^c x (3:2:2c2 c- x4 | [cf]2 x6 | [ce]2 x6 | ^F3 F- F2 F x | x8 || %10
 C2 x6 | x8 | x8 | [^CE] [CE]2 x5 | x8 | E3 x5 | x8 | x8 || x8 | x8 | x8 | x8 | x8 | x8 | x8 | %25
 x8 || x8 | x8 | x8 | x8 | x8 | x8 | x8 | x8 || x8 | x8 | x8 | x8 | x4 [Acdf] [Ac^d^f]2 x | x8 | %40
 x8 | x8 || x8 | x8 | x8 | x8 | x4 [Acdf] [Ac^d^f]2 x | x8 | x8 | x8 | x8 | x8 | x8 | %53
[M:6/4] (3z2 [B,^D]2 [B,D]2 [B,D]2 x2/3!8va(! x10/3!8va)! x2 ||[M:2/2] x4 z"^(l.h)" [ce]2 x | %55
 x4 z"^(l.h)" [b^d']2 x | x4 [_Bd]3 x |[M:7/4] x15/2!8va(! x9/2!8va)! x2 || %58
[M:2/2] x4 [Acdf]2 [Ac^d^f] x | x8 | x8 | x8 ||[M:2/4] x4 | x4 | x4 | x4 | x4 | x4 | x4 | x4 | x4 | %71
 x4 | x4 | x4 | x4 | x4 | x4 | z!8va(! (g/{^f'}g'/) x/!8va)! x3/2 | x4 | x4 | x4 | x4 | x4 | x4 | %84
 x4 | x4 | x4 | x4 | x4 | x4 | x4 | x4 | x4 | x4 || x4 | x4 | x4 | x4 | x4 | x4 | x4 | x4 | x4 | %103
 x4 | x4 | x4 | x4 | x4 | x4 | x4 | x4 | x4 | x4 | x4 | x4 | x4 | x4 | x4 | x4 | x4 | x4 | x4 | %122
 x4 | x4 | x4 | x4 || x4 | x4 | [^dg]2 x2 | x4 | x4 | x4 | x4 | x4 | x4 | x4 | x4 | x4 | x4 | x4 | %140
 x4 | x4 | x4 | x4 | [_eg]2 x2 | x4 | x4 | x4 | x4 | x4 | x4 | x4 | x4 | x4 |[M:2/2] x8 | x8 || %156
 x8 | x8 | x8 | x5!8va(! [=a^c'e'g'a']2!8va)! x | x4 [Acf] [Ac^d^f]2 x | x4 [egac'] [ega^c']2 x | %162
 x8 | x8 || x8 | x8 | x8 | x8 | x4 [Acef] [Ac_e^f]2 x | x4 [egac'] [ega^c']2 x | x8 | %171
 x3[K:bass] x5 | x7!8va(! x | x2!8va)! x6 ||[K:Db] x5 [bd'f'b'][ad'f'a'] x | x8 | x8 | x8 | x8 | %179
 x6!8va(! x2!8va)! | x8 | x8 | x8 | x8 | x8 | x8 | z [DFAd] [DFAd]2 z [DFAd] [DFAd]2 | %187
 z [DFAd] [DFAd]2 z [DFAd] [DFAd]2!8va(! | x2!8va)! x6 | x3[K:bass] x3[K:treble] x2 | %190
 z [DFAd] [DFAd]2 z [DFAd] [DFAd]2 | z [Gdg][Gdg] z z [=G=A^c=e=g] [GAceg]2 | x8 | x8 | %194
[M:6/4] x2!8va(! x2!8va)! x8 |[M:4/4] x8 |[M:11/8] x13/2!8va(! x9/2!8va)! |[M:7/4] x14 |] %198
V:4
 x8 | x8 || x8 | x8 | x8 | x8 | x8 | x8 | x8 | x [G,B,] x [G,B,] x4 || x8 | x8 | x8 | x8 | x8 | %15
 x8 | x8 | x8 || x8 | x8 | x4!8vb(! x2!8vb)! x2 | x8 | x8 | x8 | x8 | x8 || x8 | x8 | x8 | x8 | %30
 x8 | x8 | x8 | x8 || x8 | x8 | x8 | x8 | x8 | x8 | x8 | x8 || x8 | x8 | x8 | x8 | x8 | x8 | x8 | %49
 x8 | x8 | x8 | x8 |[M:6/4] x12 ||[M:2/2] x8 | x8 | x8 |[M:7/4] x14 ||[M:2/2] x8 | x8 | x8 | x8 || %62
[M:2/4] x4 | x4 | x4 | x4 | x4 | x4 | x4 | x4 | x4 | x4 | x4 | x4 | x4 | x4 | x4 | x4 | x4 | x4 | %80
 x4 | x4 | x4 | x4 | x4 | x4 | x4 | x4 | x4 | x4 | x4 | x4 | x4 | %93
 z/ [Cc]/z/[B,B]/z/[_B,_B]/z/[B,B]/ || x4 | x4 | x4 | x4 | x4 | x4 | x4 | x4 | x4 | x4 | x4 | x4 | %106
 x4 | x4 | x4 | x4 | x4 | x4 | x4 | x4 | x4 | x4 | x4 | x4 | x4 | x4 | x4 | x4 | x4 | x4 | x4 | %125
 x4 || x2!8vb(! x!8vb)! x | x4 | x4 | x4 | x4 | x4 | x4 | x4 | x4 | x4 | x4 | x4 | x4 | x4 | x4 | %141
 x4 | x4 | x4 | x4 | x4 | x4 | x4 | x4 | x4 | x4 | x4 | x4 | x4 |[M:2/2] x8 | x8 || x8 | x8 | x8 | %159
 x8 |!8vb(! x8!8vb)! | x8 | x[K:bass] x2[K:treble] x2[K:bass] x2[K:treble] x | %163
 x[K:bass] x2[K:treble] x2[K:bass] x3 || x8 | x8 | x8 | x8 | x8 | x8 | x8 | x8 | x8 | x8 || %174
[K:Db] x8 | x8 | x8 | x8 | x8 | x8 | x!8vb(! x2!8vb)! x2!8vb(! x2!8vb)! x | x8 | x8 | x8 | x8 | %185
 x8 | z [D,,D,] [D,,D,]2 z [D,,D,] [D,,D,]2 | z [D,,D,] [D,,D,]2 z [D,,D,] [D,,D,]2 | %188
 x2[K:bass] x6 | x8 | z [D,,D,] [D,,D,]2 z [_C,,_C,] [C,,C,]2 | %191
 z [B,,,B,,][B,,,B,,] z z [=A,,,=A,,] [A,,,A,,]2 | x8 | x8 |[M:6/4] x10!8vb(! x2!8vb)! | %195
[M:4/4] x8 |[M:11/8]!8vb(! x2!8vb)! x9/2!8va(! x9/2!8va)! |[M:7/4] x10!8vb(! x4!8vb)! |] %198

